assets/crossplane/original.svg

<svg preserveAspectRatio="xMidYMid" viewBox="0 0 256 540" xmlns="http://www.w3.org/2000/svg" xmlns:xlink="http://www.w3.org/1999/xlink"><mask id="a" fill="#fff"><path d="m.137 122.022c-.18 4.155-.172 8.316.027 12.47-.054 1.065-.164 2.118-.164 3.198v210.042c0 40.169 32.785 73.036 72.858 73.036h109.65c40.058 0 72.857-32.867 72.857-73.036v-210.041c0-1.23-.136-2.407-.191-3.61.199-4.017.204-8.041.014-12.059-3.09-67.922-59.009-122.022-127.519-122.022-68.524 0-124.442 54.1-127.532 122.009z" fill="#fff"/></mask><mask id="b" fill="#fff"><path d="m.137 122.022c-.18 4.155-.172 8.316.027 12.47-.054 1.065-.164 2.118-.164 3.198v210.042c0 40.169 32.785 73.036 72.858 73.036h109.65c40.058 0 72.857-32.867 72.857-73.036v-210.041c0-1.23-.136-2.407-.191-3.61.199-4.017.204-8.041.014-12.059-3.09-67.922-59.009-122.022-127.519-122.022-68.524 0-124.442 54.1-127.532 122.009z" fill="#fff"/></mask><mask id="c" fill="#fff"><path d="m.137 122.022c-.18 4.155-.172 8.316.027 12.47-.054 1.065-.164 2.118-.164 3.198v210.042c0 40.169 32.785 73.036 72.858 73.036h109.65c40.058 0 72.857-32.867 72.857-73.036v-210.041c0-1.23-.136-2.407-.191-3.61.199-4.017.204-8.041.014-12.059-3.09-67.922-59.009-122.022-127.519-122.022-68.524 0-124.442 54.1-127.532 122.009z" fill="#fff"/></mask><path d="m126.759 173.662c-17.689.03-32.008 14.386-31.993 32.074v301.878a32.034 32.034 0 0 0 31.993 32.074c17.678 0 32.006-14.356 32.006-32.074v-301.878c.015-17.688-14.304-32.044-31.993-32.074" fill="#f7d186"/><path d="m255.18 134.095c.185-4.018.185-8.041 0-12.059-3.063-67.922-58.981-122.036-127.505-122.036s-124.443 54.114-127.533 122.036a130 130 0 0 0 .014 12.469c-.04 1.066-.15 2.12-.15 3.2v210.042c0 40.168 32.785 73.036 72.858 73.036h109.65c40.058 0 72.843-32.868 72.843-73.036v-210.043c0-1.23-.123-2.406-.177-3.61" fill="#ff9234"/><path d="m331.874 126.028-316.684 317.437-93.79-94.023 316.67-317.436z" fill="#ffcd3c" mask="url(#a)" transform="translate(.635 .014)"/><path d="m237.783 31.705-316.67 317.437-116.704-116.992 316.643-317.436z" fill="#f3807b" mask="url(#b)" transform="translate(.635 .014)"/><path d="m425.964 220.351-316.67 317.423-93.79-94.022 316.671-317.423z" fill="#35d0ba" mask="url(#c)" transform="translate(.635 .014)"/><path d="m103.448 421.138 55.508 55.645v-56.11z" fill="#d8ae64"/></svg>

<svg xmlns="http://www.w3.org/2000/svg" preserveAspectRatio="xMidYMid" viewBox="0 0 256 540"><mask id="a" fill="#fff"><path d="M.137 122.022c-.18 4.155-.172 8.316.027 12.47C.11 135.557 0 136.61 0 137.69v210.042c0 40.169 32.785 73.036 72.858 73.036h109.65c40.058 0 72.857-32.867 72.857-73.036V137.691c0-1.23-.136-2.407-.191-3.61.199-4.017.204-8.041.014-12.059C252.098 54.1 196.179 0 127.669 0 59.145 0 3.227 54.1.137 122.009z"/></mask><mask id="b" fill="#fff"><path d="M.137 122.022c-.18 4.155-.172 8.316.027 12.47C.11 135.557 0 136.61 0 137.69v210.042c0 40.169 32.785 73.036 72.858 73.036h109.65c40.058 0 72.857-32.867 72.857-73.036V137.691c0-1.23-.136-2.407-.191-3.61.199-4.017.204-8.041.014-12.059C252.098 54.1 196.179 0 127.669 0 59.145 0 3.227 54.1.137 122.009z"/></mask><mask id="c" fill="#fff"><path d="M.137 122.022c-.18 4.155-.172 8.316.027 12.47C.11 135.557 0 136.61 0 137.69v210.042c0 40.169 32.785 73.036 72.858 73.036h109.65c40.058 0 72.857-32.867 72.857-73.036V137.691c0-1.23-.136-2.407-.191-3.61.199-4.017.204-8.041.014-12.059C252.098 54.1 196.179 0 127.669 0 59.145 0 3.227 54.1.137 122.009z"/></mask><path fill="#f7d186" d="M126.759 173.662c-17.689.03-32.008 14.386-31.993 32.074v301.878a32.034 32.034 0 0 0 31.993 32.074c17.678 0 32.006-14.356 32.006-32.074V205.736c.015-17.688-14.304-32.044-31.993-32.074"/><path fill="#ff9234" d="M255.18 134.095c.185-4.018.185-8.041 0-12.059C252.117 54.114 196.199 0 127.675 0S3.232 54.114.142 122.036a130 130 0 0 0 .014 12.469c-.04 1.066-.15 2.12-.15 3.2v210.042c0 40.168 32.785 73.036 72.858 73.036h109.65c40.058 0 72.843-32.868 72.843-73.036V137.704c0-1.23-.123-2.406-.177-3.61"/><path fill="#ffcd3c" d="M331.874 126.028 15.19 443.465l-93.79-94.023L238.07 32.006z" mask="url(#a)" transform="translate(.635 .014)"/><path fill="#f3807b" d="m237.783 31.705-316.67 317.437-116.704-116.992L121.052-85.286z" mask="url(#b)" transform="translate(.635 .014)"/><path fill="#35d0ba" d="m425.964 220.351-316.67 317.423-93.79-94.022 316.671-317.423z" mask="url(#c)" transform="translate(.635 .014)"/><path fill="#d8ae64" d="m103.448 421.138 55.508 55.645v-56.11z"/></svg>
